X: 7
T: Shoujin calei zhan bugan
%%abc-version 2.0
%%abcx-abcm2ps-target-version 5.9.1 (29 Sep 2008)
%%abc-creator hum2abc beta
%%abcx-conversion-date 2013/10/02 07:52:29
%%abc-edited-by Helmut Schaffrath
%%humdrum-veritas 367314563
%%humdrum-veritas-data 2634344694
%%continueall 1
%%barnumbers 0
L: 1/8
M: 2/4
K: C
A GC2 [I:setbarnb 1]| 
G> A G A | 
e d/ c/ D E | 
G4 | 
A GC2 | 
G> A G A | 
e d/ c/ D E | 
C4 |]  



